svgs/sharp-regular/message-captions.svg

<svg xmlns="http://www.w3.org/2000/svg" viewBox="0 0 512 512"><!--! Font Awesome Pro 6.6.0 by @fontawesome - https://fontawesome.com License - https://fontawesome.com/license (Commercial License) Copyright 2024 Fonticons, Inc. --><path d="M160 512l48-32 96-64 160 0 48 0 0-48 0-320 0-48L464 0 48 0 0 0 0 48 0 368l0 48 48 0 64 0 48 0 0 38.3 0 9.7 0 48zM277.4 376.1L208 422.3l0-6.3 0-48-48 0L48 368 48 48l416 0 0 320-160 0-14.5 0-12.1 8.1zM120 192l-24 0 0 48 24 0 144 0 24 0 0-48-24 0-144 0zm224 0l-24 0 0 48 24 0 48 0 24 0 0-48-24 0-48 0zM120 272l-24 0 0 48 24 0 48 0 24 0 0-48-24 0-48 0zm128 0l-24 0 0 48 24 0 144 0 24 0 0-48-24 0-144 0z"/></svg>

<svg xmlns="http://www.w3.org/2000/svg" viewBox="0 0 512 512"><!--! Font Awesome Pro 6.4.0 by @fontawesome - https://fontawesome.com License - https://fontawesome.com/license (Commercial License) Copyright 2023 Fonticons, Inc. --><path d="M160 512l48-32 96-64H464h48V368 48 0H464 48 0V48 368v48H48h64 48v38.3V464v48zM277.4 376.1L208 422.3V416 368H160 48V48H464V368H304 289.5l-12.1 8.1zM120 192H96v48h24H264h24V192H264 120zm224 0H320v48h24 48 24V192H392 344zM120 272H96v48h24 48 24V272H168 120zm128 0H224v48h24H392h24V272H392 248z"/></svg>
